frontend/public/socials/linkedin.svg

<svg xmlns="http://www.w3.org/2000/svg" height="72" viewBox="0 0 72 72" width="72">
  <g fill="none" fill-rule="evenodd">
    <path d="M8,72 L64,72 C68.418278,72 72,68.418278 72,64 L72,8 C72,3.581722 68.418278,-8.11624501e-16 64,0 L8,0 C3.581722,8.11624501e-16 -5.41083001e-16,3.581722 0,8 L0,64 C5.41083001e-16,68.418278 3.581722,72 8,72 Z" fill="#FFF"/>
    <path d="M62,62 L51.315625,62 L51.315625,43.8021149 C51.315625,38.8127542 49.4197917,36.0245323 45.4707031,36.0245323 C41.1746094,36.0245323 38.9300781,38.9261103 38.9300781,43.8021149 L38.9300781,62 L28.6333333,62 L28.6333333,27.3333333 L38.9300781,27.3333333 L38.9300781,32.0029283 C38.9300781,32.0029283 42.0260417,26.2742151 49.3825521,26.2742151 C56.7356771,26.2742151 62,30.7644705 62,40.051212 L62,62 Z M16.349349,22.7940133 C12.8420573,22.7940133 10,19.9296567 10,16.3970067 C10,12.8643566 12.8420573,10 16.349349,10 C19.8566406,10 22.6970052,12.8643566 22.6970052,16.3970067 C22.6970052,19.9296567 19.8566406,22.7940133 16.349349,22.7940133 Z M11.0325521,62 L21.769401,62 L21.769401,27.3333333 L11.0325521,27.3333333 L11.0325521,62 Z" fill="#000"/>
  </g>
</svg>

<?xml version="1.0" encoding="utf-8"?>
<!-- Generator: Adobe Illustrator 23.0.1, SVG Export Plug-In . SVG Version: 6.00 Build 0)  -->
<svg version="1.1" id="Layer_1" xmlns="http://www.w3.org/2000/svg" xmlns:xlink="http://www.w3.org/1999/xlink" x="0px" y="0px"
	 viewBox="0 0 72 72" style="enable-background:new 0 0 72 72;" xml:space="preserve">
<style type="text/css">
	.st0{fill-rule:evenodd;clip-rule:evenodd;fill:#FFFFFF;}
	.st1{fill-rule:evenodd;clip-rule:evenodd;}
</style>
<g>
	<path class="st0" d="M8,72h56c4.4,0,8-3.6,8-8V8c0-4.4-3.6-8-8-8H8C3.6,0,0,3.6,0,8v56C0,68.4,3.6,72,8,72z"/>
	<path class="st1" d="M62,62H51.3V43.8c0-5-1.9-7.8-5.8-7.8c-4.3,0-6.5,2.9-6.5,7.8V62H28.6V27.3h10.3V32c0,0,3.1-5.7,10.5-5.7
		c7.4,0,12.6,4.5,12.6,13.8V62z M16.3,22.8c-3.5,0-6.3-2.9-6.3-6.4s2.8-6.4,6.3-6.4s6.3,2.9,6.3,6.4S19.9,22.8,16.3,22.8z M11,62
		h10.7V27.3H11V62z"/>
</g>
</svg>
